src/assets/images/expertise/angular.svg

<?xml version="1.0" encoding="utf-8"?>
<svg width="85" height="91" viewBox="0 0 85 91" fill="none" xmlns="http://www.w3.org/2000/svg">
<g opacity="0.6">
<path d="M42.5386 56.287H53.7263L59.0258 69.513H68.9L42.5386 10.4036V10.4489V0.393555L84.7078 15.4313L78.276 71.1889L42.5386 90.9826V56.287Z" fill="#1F3D56"/>
<path d="M50.2386 48.1339H42.5386V29.6084L50.2386 48.1339Z" fill="#1F3D56"/>
<path d="M42.5379 56.287H31.3501L26.0506 69.513H16.1764L42.5379 10.4036V10.4489V0.393555L0.368652 15.4313L6.80047 71.1889L42.5379 90.9826V56.287Z" fill="#335878"/>
<path d="M34.8379 48.1339H42.538V29.6084L34.8379 48.1339Z" fill="#335878"/>
</g>
</svg>

<svg width="85" height="91" fill="none" xmlns="http://www.w3.org/2000/svg"><g opacity=".6"><path d="M42.539 56.287h11.187l5.3 13.226H68.9l-26.361-59.11v.046V.394L84.708 15.43 78.276 71.19 42.539 90.983V56.287z" fill="#1F3D56"/><path d="M50.239 48.134h-7.7V29.608l7.7 18.526z" fill="#1F3D56"/><path d="M42.538 56.287H31.35l-5.3 13.226h-9.874l26.362-59.11v.046V.394L.368 15.43 6.8 71.19l35.738 19.794V56.287z" fill="#335878"/><path d="M34.838 48.134h7.7V29.608l-7.7 18.526z" fill="#335878"/></g></svg>
